packages/tokens/icons/coaching/size32Px.svg

<svg viewBox="0 0 32 32" fill="none" xmlns="http://www.w3.org/2000/svg" width="1em" height="1em"><path d="M6.5 11C6.5 11.8284 5.82843 12.5 5 12.5C4.17157 12.5 3.5 11.8284 3.5 11C3.5 10.1716 4.17157 9.5 5 9.5C5.82843 9.5 6.5 10.1716 6.5 11Z" stroke="currentColor"/><circle cx="11" cy="19" r="5.5" stroke="currentColor"/><circle cx="11" cy="19" r="3.5" stroke="currentColor"/><path d="M16.5 10.5L16.5 13.5" stroke="currentColor" stroke-linecap="round"/><path d="M24.5 10.5L24.5 17.5" stroke="currentColor" stroke-linecap="round"/><mask id="path-6-inside-1_1748_8602" fill="currentColor"><path fill-rule="evenodd" clip-rule="evenodd" d="M21.5674 19.2006C20.6443 19.3578 19.9774 20.1425 19.7645 21.0544C18.8351 25.035 15.2638 28 11 28C6.02944 28 2 23.9706 2 19C2 14.0294 6.02944 10 11 10L27 10C27.5523 10 28 10.4477 28 11V17.2611C28 17.7487 27.6485 18.1651 27.1679 18.247L21.5674 19.2006Z"/></mask><path d="M27.1679 18.247L27 17.2611L27.1679 18.247ZM19.7645 21.0544L20.7383 21.2817L19.7645 21.0544ZM21.5674 19.2006L21.7352 20.1864L21.5674 19.2006ZM18.7907 20.827C17.9645 24.3653 14.7887 27 11 27V29C15.7388 29 19.7056 25.7047 20.7383 21.2817L18.7907 20.827ZM11 27C6.58172 27 3 23.4183 3 19H1C1 24.5228 5.47715 29 11 29V27ZM3 19C3 14.5817 6.58172 11 11 11V9C5.47715 9 1 13.4772 1 19H3ZM11 11L27 11V9L11 9V11ZM27 11H29C29 9.89543 28.1046 9 27 9V11ZM27 11V17.2611H29V11H27ZM27 17.2611V17.2611L27.3357 19.2328C28.2969 19.0691 29 18.2362 29 17.2611H27ZM27 17.2611L21.3995 18.2148L21.7352 20.1864L27.3357 19.2328L27 17.2611ZM20.7383 21.2817C20.8838 20.6584 21.3041 20.2598 21.7352 20.1864L21.3995 18.2148C19.9844 18.4558 19.0709 19.6266 18.7907 20.827L20.7383 21.2817Z" fill="currentColor" mask="url(#path-6-inside-1_1748_8602)"/><line x1="16.5" y1="2.5" x2="16.5" y2="7.5" stroke="currentColor" stroke-linecap="round"/><path d="M13.0405 7.5L9.99988 4.45947" stroke="currentColor" stroke-linecap="round"/><path d="M19.5049 7.5L22.5455 4.45947" stroke="currentColor" stroke-linecap="round"/></svg>

<svg xmlns="http://www.w3.org/2000/svg" fill="none" viewBox="0 0 32 32" width="1em" height="1em"><path stroke="currentColor" d="M6.5 11a1.5 1.5 0 1 1-3 0 1.5 1.5 0 0 1 3 0Z"/><circle cx="11" cy="19" r="5.5" stroke="currentColor"/><circle cx="11" cy="19" r="3.5" stroke="currentColor"/><path stroke="currentColor" stroke-linecap="round" d="M16.5 10.5v3m8-3v7"/><mask id="iconsCoachingSize32Px__a" fill="#fff"><path fill-rule="evenodd" d="M21.567 19.2c-.923.158-1.59.942-1.802 1.854A9 9 0 1 1 11 10h16a1 1 0 0 1 1 1v6.261a1 1 0 0 1-.832.986l-5.6.954Z" clip-rule="evenodd"/></mask><path fill="currentColor" d="M27.168 18.247 27 17.261l.168.986Zm-7.403 2.807.973.228-.973-.228Zm1.802-1.853.168.985-.168-.985Zm-2.776 1.626A8.004 8.004 0 0 1 11 27v2c4.739 0 8.706-3.295 9.738-7.718l-1.947-.455ZM11 27a8 8 0 0 1-8-8H1c0 5.523 4.477 10 10 10v-2Zm-8-8a8 8 0 0 1 8-8V9C5.477 9 1 13.477 1 19h2Zm8-8h16V9H11v2Zm16 0h2a2 2 0 0 0-2-2v2Zm0 0v6.261h2V11h-2Zm0 6.261.336 1.972A2 2 0 0 0 29 17.26h-2Zm0 0-5.6.954.335 1.971 5.6-.953L27 17.26Zm-6.262 4.02c.146-.623.566-1.021.997-1.095l-.335-1.971c-1.416.24-2.33 1.412-2.61 2.612l1.948.455Z" mask="url(#iconsCoachingSize32Px__a)"/><path stroke="currentColor" stroke-linecap="round" d="M16.5 2.5v5m-3.46 0L10 4.46m9.505 3.04 3.04-3.04"/></svg>
